src/assets/outline/ExternalDrive.svg

<svg width="24" height="24" viewBox="0 0 24 24"  xmlns="http://www.w3.org/2000/svg">
<path d="M16 22.75H9C5.56 22.75 3.25 20.44 3.25 17V7C3.25 3.56 5.56 1.25 9 1.25H16C19.44 1.25 21.75 3.56 21.75 7V17C21.75 20.44 19.44 22.75 16 22.75ZM9 2.75C6.42 2.75 4.75 4.42 4.75 7V17C4.75 19.58 6.42 21.25 9 21.25H16C18.58 21.25 20.25 19.58 20.25 17V7C20.25 4.42 18.58 2.75 16 2.75H9Z" />
<path d="M21 15.75H4C3.59 15.75 3.25 15.41 3.25 15C3.25 14.59 3.59 14.25 4 14.25H21C21.41 14.25 21.75 14.59 21.75 15C21.75 15.41 21.41 15.75 21 15.75Z" />
<path d="M8 12.75H7C6.59 12.75 6.25 12.41 6.25 12C6.25 11.59 6.59 11.25 7 11.25H8C8.41 11.25 8.75 11.59 8.75 12C8.75 12.41 8.41 12.75 8 12.75Z" />
<path d="M8 10.25H7C6.59 10.25 6.25 9.91 6.25 9.5C6.25 9.09 6.59 8.75 7 8.75H8C8.41 8.75 8.75 9.09 8.75 9.5C8.75 9.91 8.41 10.25 8 10.25Z" />
<path d="M8 7.75H7C6.59 7.75 6.25 7.41 6.25 7C6.25 6.59 6.59 6.25 7 6.25H8C8.41 6.25 8.75 6.59 8.75 7C8.75 7.41 8.41 7.75 8 7.75Z" />
<path d="M17 19.4999C16.74 19.4999 16.48 19.3899 16.29 19.2099C16.11 19.0199 16 18.7599 16 18.4999C16 18.2299 16.11 17.9799 16.29 17.7899C16.57 17.5099 17.01 17.4199 17.38 17.5799C17.5 17.6299 17.61 17.6999 17.71 17.7899C17.89 17.9799 18 18.2399 18 18.4999C18 18.7599 17.89 19.0199 17.71 19.2099C17.61 19.2999 17.51 19.3699 17.38 19.4199C17.26 19.4699 17.13 19.4999 17 19.4999Z" />
</svg>

<?xml version="1.0" encoding="UTF-8"?>
<svg width="24" height="24" viewBox="0 0 24 24" xmlns="http://www.w3.org/2000/svg">
 <path d="m16 22.75h-7c-3.44 0-5.75-2.31-5.75-5.75v-10c0-3.44 2.31-5.75 5.75-5.75h7c3.44 0 5.75 2.31 5.75 5.75v10c0 3.44-2.31 5.75-5.75 5.75zm-7-20c-2.58 0-4.25 1.67-4.25 4.25v10c0 2.58 1.67 4.25 4.25 4.25h7c2.58 0 4.25-1.67 4.25-4.25v-10c0-2.58-1.67-4.25-4.25-4.25h-7z"/>
 <path d="m21 15.75h-17c-0.41 0-0.75-0.34-0.75-0.75s0.34-0.75 0.75-0.75h17c0.41 0 0.75 0.34 0.75 0.75s-0.34 0.75-0.75 0.75z"/>
 <path d="m8 12.75h-1c-0.41 0-0.75-0.34-0.75-0.75s0.34-0.75 0.75-0.75h1c0.41 0 0.75 0.34 0.75 0.75s-0.34 0.75-0.75 0.75z"/>
 <path d="m8 10.25h-1c-0.41 0-0.75-0.34-0.75-0.75s0.34-0.75 0.75-0.75h1c0.41 0 0.75 0.34 0.75 0.75s-0.34 0.75-0.75 0.75z"/>
 <path d="m8 7.75h-1c-0.41 0-0.75-0.34-0.75-0.75s0.34-0.75 0.75-0.75h1c0.41 0 0.75 0.34 0.75 0.75s-0.34 0.75-0.75 0.75z"/>
 <path d="m17 19.5c-0.26 0-0.52-0.11-0.71-0.29-0.18-0.19-0.29-0.45-0.29-0.71 0-0.27 0.11-0.52 0.29-0.71 0.28-0.28 0.72-0.37 1.09-0.21 0.12 0.05 0.23 0.12 0.33 0.21 0.18 0.19 0.29 0.45 0.29 0.71s-0.11 0.52-0.29 0.71c-0.1 0.09-0.2 0.16-0.33 0.21-0.12 0.05-0.25 0.08-0.38 0.08z"/>
</svg>
